X:228
T:Lillies in the Field
R:reel
D:Music of Dreams
Z:transcribed by Dave Marshall
M:C|
K:D
|: Addc A3B | cBcd ecdc | Addc A3B | cAGE EDD2 :|
| d2fd Adfd | cdef gece | d2fd Adfd | eaag eddc |
d2fd Adfd | cdef g2fg | a2ge fddf | eaag edd2 |
